X: 37174
T: Sir Harry's Welcome Home
R: strathspey
M: 4/4
K: Gmajor
D|G>Bd>B A<GE>D|G>Bd>c B<gd>B|c>AB<G A>GE>F|G>G F/ED/ G3 D|
G>Bd>B A<GE>D|G>Bd>c B<gd>B|c>dB<G A>GE>F|G>G F/ED/ G3 z||
g>d g<b a>ge>f|g>d g<b d>gb>g|a>gb>g a>ge>f|g>d d<b a2 g<d|
g>d g<b a>ge>f|g>dgb ab g<d|e<g B<g A>GE>G|G>G F/ED/ G3||

